X: 110
T:En Tournante (c-mel)
M:2/4
L:1/8
C:Paddy Shaw
S:Massif Village Orchestra 1998
R:Polka
K:C
|: d3 g | e3 g | f3 a | d>g ^fd | d3 g | e3 g |
f>e d2 | d/e/d/c/ B2 :: ed/e/ fe | dc c2 | cB/c/ dB |
GBd2 | ed/e/ fe | dc c2 | cB/c/ dB | GB c2 :|
<end>
<start>
